build/svg/cmd/lc_datadatapilotrun.svg

<svg xmlns="http://www.w3.org/2000/svg" viewBox="0 0 24 24"><path fill="#fff" fill-rule="evenodd" d="M4 8h3v11H4z"/><path fill="#a6d74f" fill-rule="evenodd" d="M4 4h15v3H4z"/><path d="M3 5v13c0 2 1 2 3 2h2V8h12V5c0-2-1-2-3-2H6C4 3 3 3 3 5zm1 0c0-1 1-1 2-1h1v3H4zm4-1h3v3H8zm4 0h3v3h-3zm4 0h1c1 0 2 0 2 1v2h-3zM4 8h3v3H4zm0 4h3v3H4zm0 4h3v3H6c-1 0-2 0-2-1z" fill="#6d6d6d" fill-rule="evenodd"/><path d="M10.5 15l4.5-3v2h2c1 0 1 0 1-2v-1h2v2c0 2 0 3-2 3h-3v2z" opacity=".6" stroke="#000" stroke-width="2" stroke-linejoin="round"/><path d="M10.5 15l4.5-3v2h2c1 0 1 0 1-2v-1h2v2c0 2 0 3-2 3h-3v2z" fill="#fff"/></svg>

<?xml version="1.0" encoding="UTF-8" standalone="no"?>
<svg
   xmlns:dc="http://purl.org/dc/elements/1.1/"
   xmlns:cc="http://creativecommons.org/ns#"
   xmlns:rdf="http://www.w3.org/1999/02/22-rdf-syntax-ns#"
   xmlns:svg="http://www.w3.org/2000/svg"
   xmlns="http://www.w3.org/2000/svg"
   xmlns:sodipodi="http://sodipodi.sourceforge.net/DTD/sodipodi-0.dtd"
   xmlns:inkscape="http://www.inkscape.org/namespaces/inkscape"
   viewBox="0 0 24 24"
   version="1.1"
   id="svg6"
   sodipodi:docname="lc_datadatapilotrun.svg"
   inkscape:version="0.92.5 (2060ec1f9f, 2020-04-08)"
   inkscape:export-filename="/home/jupiter007/Libreoffice yaru theme fullcolor/build/cmd/lc_datadatapilotrun.png"
   inkscape:export-xdpi="96"
   inkscape:export-ydpi="96">
  <metadata
     id="metadata12">
    <rdf:RDF>
      <cc:Work
         rdf:about="">
        <dc:format>image/svg+xml</dc:format>
        <dc:type
           rdf:resource="http://purl.org/dc/dcmitype/StillImage" />
      </cc:Work>
    </rdf:RDF>
  </metadata>
  <defs
     id="defs10" />
  <sodipodi:namedview
     pagecolor="#ffffff"
     bordercolor="#666666"
     borderopacity="1"
     objecttolerance="10"
     gridtolerance="10"
     guidetolerance="10"
     inkscape:pageopacity="0"
     inkscape:pageshadow="2"
     inkscape:window-width="1920"
     inkscape:window-height="1011"
     id="namedview8"
     showgrid="true"
     inkscape:zoom="27.812867"
     inkscape:cx="12.773182"
     inkscape:cy="11.088915"
     inkscape:window-x="0"
     inkscape:window-y="32"
     inkscape:window-maximized="1"
     inkscape:current-layer="svg6">
    <inkscape:grid
       type="xygrid"
       id="grid822" />
  </sodipodi:namedview>
  <rect
     style="opacity:1;fill:#ffffff;fill-opacity:1;fill-rule:evenodd;stroke:none;stroke-width:2;stroke-linecap:butt;stroke-linejoin:round;stroke-miterlimit:4;stroke-dasharray:none;stroke-opacity:1"
     id="rect850"
     width="3"
     height="11"
     x="4"
     y="8" />
  <rect
     style="opacity:1;fill:#a6d74f;fill-opacity:1;fill-rule:evenodd;stroke:none;stroke-width:2;stroke-linecap:butt;stroke-linejoin:round;stroke-miterlimit:4;stroke-dasharray:none;stroke-opacity:1"
     id="rect852"
     width="15"
     height="3"
     x="4"
     y="4" />
  <path
     style="opacity:1;fill:#6d6d6d;fill-opacity:1;fill-rule:evenodd;stroke:none;stroke-width:2;stroke-linecap:butt;stroke-linejoin:round;stroke-miterlimit:4;stroke-dasharray:none;stroke-opacity:1"
     d="m 3,5 v 3 10 c 0,2 1,2 3,2 H 8 V 8 H 20 V 5 C 20,3 19,3 17,3 H 8 6 C 4,3 3,3 3,5 Z M 4,5 C 4,4 5,4 6,4 H 7 V 7 H 4 Z M 8,4 h 3 V 7 H 8 Z m 4,0 h 3 v 3 h -3 z m 4,0 h 1 c 1,0 2,0 2,1 V 7 H 16 Z M 4,8 h 3 v 3 H 4 Z m 0,4 h 3 v 3 H 4 Z m 0,4 h 3 v 3 H 6 C 5,19 4,19 4,18 Z"
     id="rect824"
     inkscape:connector-curvature="0"
     sodipodi:nodetypes="cccccccccccccccccccccccccccccccccccccccccccccccccc" />
  <path
     inkscape:connector-curvature="0"
     style="opacity:0.6;fill:#000000;fill-opacity:1;stroke:#000000;stroke-width:2;stroke-linecap:butt;stroke-linejoin:round;stroke-miterlimit:4;stroke-dasharray:none;stroke-opacity:1"
     d="M 10.5,15 15,12 v 2 h 2 c 1,0 1,0 1,-2 v -1 h 2 v 1 1 c 0,2 0,3 -2,3 h -3 v 2 z"
     id="path877"
     sodipodi:nodetypes="ccccccccccccc" />
  <path
     sodipodi:nodetypes="ccccccccccccc"
     id="path841"
     d="M 10.5,15 15,12 v 2 h 2 c 1,0 1,0 1,-2 v -1 h 2 v 1 1 c 0,2 0,3 -2,3 h -3 v 2 z"
     style="fill:#ffffff;fill-opacity:1;stroke:none;stroke-width:1px;stroke-linecap:butt;stroke-linejoin:miter;stroke-opacity:1"
     inkscape:connector-curvature="0" />
</svg>
